X:895
T:Hold the Reins
R:reel
Z:transcribed by Dave Marshall
M:C|
K:G
| g3d BGGB | ABcA d2ef | g2dc BGGB | AdcA G2Bd |
g2dc BGGB | ABcA d2ef | g2dc BGGB | AdcA G4 |
| d~f3 d~g3 | defd edBA | d~f3 dgge | fdcA G4 |
d~f3 d~g3 | defd edBd | ~g3a bgag | fdcA G4 |
